src/assets/imgs/ico_weixin.svg

<?xml version="1.0" encoding="UTF-8"?>
<svg width="20px" height="20px" viewBox="0 0 20 20" version="1.1" xmlns="http://www.w3.org/2000/svg" xmlns:xlink="http://www.w3.org/1999/xlink">
    <title>ico_weixin</title>
    <g id="页面-1" stroke="none" stroke-width="1" fill="none" fill-rule="evenodd">
        <g id="1-分享主页" transform="translate(-261.000000, -319.000000)">
            <g id="编组-13" transform="translate(256.000000, 314.000000)">
                <g id="编组" transform="translate(5.000000, 5.000000)">
                    <path d="M17.4964415,16.5141045 L18.0274974,18.2770445 L16.0896092,17.2149327 C15.3836051,17.3929866 14.6724249,17.5710404 13.9695264,17.5710404 C10.609278,17.5710404 7.96228001,15.2739389 7.96228001,12.4437112 C7.96228001,9.61969461 10.609278,7.31638199 13.9695264,7.31638199 C17.1444746,7.31638199 19.9705616,9.61762422 19.9705616,12.4437112 C19.9705616,14.0379141 18.914661,15.4488872 17.4964415,16.5130694 M7.07615166,14.0399845 C6.19519929,14.0399845 5.48401917,13.858825 4.60203157,13.6859472 L2.13205229,14.9240424 L2.83909161,12.7987837 C1.07097566,11.5617236 0.0130046584,9.97062631 0.0130046584,8.03170291 C0.0130046584,4.66834887 3.19416409,2.02342132 7.07718684,2.02342132 C10.5513069,2.02342132 13.59375,4.13625776 14.204516,6.98408385 C13.9788034,6.95709718 13.7517113,6.94327117 13.5243918,6.94267598 C10.1682842,6.94267598 7.51921584,9.44785195 7.51921584,12.5327381 C7.51921584,13.048266 7.59892598,13.5399845 7.73660714,14.0130694 C7.51681424,14.0293545 7.29654085,14.0383312 7.07615166,14.0399845" id="形状" fill="#00BA42"></path>
                    <path d="M15.9695264,10.0958851 C16.1703545,10.0958851 16.3711827,10.1776656 16.5119695,10.3205228 C16.7291024,10.5410284 16.7931682,10.8700805 16.6746238,11.1559418 C16.5560794,11.441803 16.2779502,11.6289496 15.9684912,11.6310818 C15.7651766,11.6304244 15.5703005,11.5497219 15.4260481,11.4064441 C15.2089152,11.1859385 15.1448494,10.8568864 15.2633938,10.5710251 C15.3819382,10.2851638 15.6600674,10.0980172 15.9695264,10.0958851 L15.9695264,10.0958851 Z M12.1206651,10.0958851 C12.3242716,10.0966049 12.5194474,10.1772775 12.6641434,10.3205228 C12.963422,10.6210399 12.963422,11.1069622 12.6641434,11.4074793 C12.3621202,11.7040748 11.8781748,11.7040748 11.5761517,11.4074793 C11.3599217,11.1864892 11.2965693,10.8577245 11.4151962,10.572208 C11.5338231,10.2866915 11.8114973,10.0996172 12.1206651,10.0969203 L12.1206651,10.0958851 Z M9.69726968,4.8091356 C9.95192806,4.8091356 10.2086568,4.91265528 10.3918866,5.09381471 C10.5743226,5.27906397 10.6768944,5.52843233 10.6776009,5.78843168 C10.6766144,6.04868019 10.5741045,6.29826965 10.3918866,6.48408385 C10.2063721,6.66624601 9.95726129,6.7690831 9.69726968,6.77083334 C9.43748879,6.76903519 9.18851476,6.66662561 9.00265268,6.48511906 C8.8198376,6.3000366 8.71688583,6.05064799 8.71590322,5.79050206 C8.71590322,5.53170288 8.82045807,5.2780797 9.00265268,5.09588509 C9.18761017,4.91288157 9.43707939,4.80989651 9.69726968,4.8091356 L9.69726968,4.8091356 Z M4.6910585,4.8091356 C4.94778727,4.8091356 5.20451606,4.91265528 5.38464026,5.09588509 C5.56683487,5.2780797 5.67138975,5.5306677 5.67138975,5.78946688 C5.67013668,6.04925392 5.56720515,6.29822187 5.38464026,6.48304865 C5.19991809,6.66589917 4.95096984,6.76919412 4.6910585,6.77083334 C4.43127761,6.76903519 4.18230358,6.66662561 3.9964415,6.48511906 C3.81362642,6.3000366 3.71067465,6.05064799 3.70969204,5.79050206 C3.70969204,5.53170288 3.8163173,5.2780797 3.9964415,5.09588509 C4.18127334,4.91269228 4.43082375,4.80967371 4.6910585,4.8091356 L4.6910585,4.8091356 Z" id="形状" fill="#FFFFFF" fill-rule="nonzero"></path>
                </g>
            </g>
        </g>
    </g>
</svg>

<svg width="20" height="20" xmlns="http://www.w3.org/2000/svg"><g fill="none" fill-rule="evenodd"><path d="M17.496 16.514l.531 1.763-1.937-1.062c-.706.178-1.418.356-2.12.356-3.36 0-6.008-2.297-6.008-5.127 0-2.824 2.647-5.128 6.008-5.128 3.174 0 6 2.302 6 5.128 0 1.594-1.055 3.005-2.474 4.07M7.076 14.04c-.88 0-1.592-.181-2.474-.354l-2.47 1.238.707-2.125C1.071 11.562.013 9.97.013 8.032c0-3.364 3.181-6.009 7.064-6.009 3.474 0 6.517 2.113 7.128 4.961a5.858 5.858 0 00-.68-.041c-3.357 0-6.006 2.505-6.006 5.59 0 .515.08 1.007.218 1.48-.22.016-.44.025-.66.027" fill="#00BA42"/><path d="M15.97 10.096c.2 0 .401.082.542.225a.77.77 0 01-.544 1.31.773.773 0 01-.542-.225.77.77 0 01.544-1.31zm-3.85 0a.77.77 0 01.543 1.312.776.776 0 01-1.087 0 .771.771 0 01.545-1.311v-.001zM9.698 4.809c.255 0 .512.104.695.285a.994.994 0 01.286.694.999.999 0 01-.286.696 1.001 1.001 0 01-.695.287 1.004 1.004 0 01-.694-.286.994.994 0 01-.287-.694.99.99 0 01.287-.695.992.992 0 01.694-.287zm-5.006 0a.983.983 0 01.98.98.994.994 0 01-.286.694.995.995 0 01-.694.288 1.004 1.004 0 01-.695-.286.994.994 0 01-.286-.694c0-.26.106-.513.286-.695a.99.99 0 01.695-.287z" fill="#FFF" fill-rule="nonzero"/></g></svg>
